X: 23632
T: Lily's March
R: three-two
M: 3/2
K: Dmajor
A,2 D2ED|:F4 A3F E2D2|[M:2/2]B,4 A,4-|A,2A,2 D2ED|[M:3/2]F4 A3F E2DF|
E6 A,2 D2ED|F4 A3F E2D2|[M:2/2]B,4 A,4-|A,2A,2 D2ED|
[M:3/2]F4 A3F EDCC|1 D6 A,2 D2ED:|2 D6 A2 d2f2|
a3a a2a2 b2aa|g3g g2g2 a2gg|f3f f2e2 d2f2|[M:2/2]e2cA A4-|A2A2 d2ff|
[M:3/2] a3a a2a2 b2aa|g3g g2g2 a2gg|f3f fedf eAcA|d3d- d2A2 d2e2|
a3a a2a2 b2aa|g3g g2g2 a2gg|f3f f2e2 d2f2|e2c2 A8|z6 A,2 D2ED|
F4 A3F E2D2|[M:2/2]B,4 A,4-|A,2A,2 D2ED|[M:3/2]F4 A3F EDCC|D6||

